!!!!SEGMENT: pl-wumfc--n68232--002_moniuszko-stanislaw--paria-wyciag-fortepianowy-prolog-scena-i.krn
!!!OTL: Title
!!!cenid: 18xx:4132
!!!COM: Moniuszko, Stanisław
!!!COM-rismID: pe30008351
!!!CDT: 1819/05/05-1872/06/04
!!!CNT: Polish
!!!GTL: Paria – wyciąg fortepianowy
!!!OTL: Prolog. Scena I
!!!PDT:
!!!AGN:
!!!SMS-siglum: PL-Wumfc 
!!!SMS-shelfmark: N68232
!!!SMS-variant:
!!!SMS-altvar:
!!!SMS-shelfwork: 002 G
!!!NIFC-rismSourceID: 1001171381
!!!NIFC-rismChildID: 1001171381
!!!NIFC-islandoraID: pl-wumfc:7210
!!!URL-pdf-islandora: https://repozytorium.nifc.pl/islandora/object/pl-wumfc%3A7210/datastream/PDF/view
!!!URL-scan: https://polish.musicsources.pl/pl/lokalizacje/galeria/druki-muzyczne/12634/1 @EN{Scan on Polish Music Sources Website} @PL{Skany w portalu Dziedzictwo Muzyki Polskiej w otwartym dostępie}
!!!ONB-nifc: UWAGA: str. 6-7. Uwaga: proszę w pliku umieszczać obsadę, która występuje tylko w danej części. 
!!!AIN: 1 piano 1 tenor
!!!key:
**kern	**kern	**dynam	**kern	**text	**text	**dynam
*part2	*part2	*part2	*part1	*part1	*part1	*part1
*staff3	*staff2	*	*staff1	*staff1	*staff1	*
*Ipiano	*Iempty	*	*Itenor	*	*	*
*I"Piano	*	*	*I"Tenore	*	*	*
*I'P-no	*	*	*I'T.	*	*	*
*clefF4	*clefG2	*	*clefG2	*	*	*
*k[f#]	*k[f#]	*	*k[f#]	*	*	*
*G:	*G:	*	*G:	*	*	*
*M4/4	*M4/4	*	*M4/4	*	*	*
*met(c)	*met(c)	*	*met(c)	*	*	*
=1	=1	=1	=1	=1	=1	=1
!	!LO:TX:b:t=Q.	!	!LO:TX:a:B:t=Lento	!	!	!
1EE 1E 1G 1B	1e	pp	2r	.	.	.
!	!	!	!LO:TX:a:t=Ratef. Ratef.	!	!	!
!	!	!	!LO:TX:a:i:t=a tempo	!	!	!
.	.	.	4e/	Wśród	Nel	.
.	.	.	8g/	cie-	te-	.
.	.	.	8a/	-niów	-ne-	.
=2	=2	=2	=2	=2	=2	=2
2EE/ 2E	2G/ 2B 2e	.	4.b\	no-	-bror	.
.	.	.	8b\	-cy,	not-	.
2CC/ 2C	2A/ 2e 2a	.	4a/	smę-	-tur-	.
.	.	.	8g/	-tny,	-no,	.
.	.	.	16r	.	.	.
.	.	.	16a/	po-	mio	.
=3	=3	=3	=3	=3	=3	=3
((1GGG 1GG	(1B [1e 1b	.	4b\	-nu-	du-	.
.	.	.	8e/	-ry,	-ce,	.
.	.	.	8r	.	.	.
.	.	.	4g/	Jak-	Cu-	.
.	.	.	8f#/	-by	-po ed	.
.	.	.	8e/	Cię	op-	.
=4	=4	=4	=4	=4	=4	=4
2CC/)) 2C	2A/) 2e] 2a	.	4a/	zbu-	-pres-	.
.	.	.	8a/	-dził	-so,	.
.	.	.	8a/	spo-	tur-	.
2GGG/ 2GG	2B/ 2e 2b	.	(4b\	-ko-	-ba-	.
.	.	.	8g/)	.	.	.
.	.	.	8e/	-ju	-to in	.
!!linebreak:original
=5	=5	=5	=5	=5	=5	=5
1AAA 1AA	1c 1e 1cc	.	4cc\	wróg,	cor,	.
.	.	.	4r	.	.	.
.	.	.	4cc\	Cze-	Fuor	.
.	.	.	8b\	-mu	del-	.
.	.	.	8cc\	po-	-le	.
=6	=6	=6	=6	=6	=6	=6
*	*^	*	*	*	*	*
2CC/ 2C	((2e/ 2g	1c	.	4.g/	-rzu-	mu-	.
.	.	.	.	8g/	-casz	-ra	.
2FFFn/ 2FFn	2fn/)) 2a	.	.	4a/	Be-	che	.
.	.	.	.	8g/	-na-	ti	.
.	.	.	.	8fn/	-res	con-	.
=7	=7	=7	=7	=7	=7	=7	=7
2GGG/ 2GG	((2d/ 2g	1B	.	4.g/	mu-	-du-	.
.	.	.	.	8g/	-ry,	-ce,	.
4CC/ 4C	4c/)) 4e	.	.	4e/	Wo-	Qual	.
4r	4ra	.	.	8g/	-dzu	for-	.
.	.	.	.	8a/	mój	-za oc-	.
*	*v	*v	*	*	*	*	*
=8	=8	=8	=8	=8	=8	=8
1r	1r	.	4.b\	dro-	-cul-	.
.	.	.	8b\	-gi,	-ta	.
.	.	.	4a/	co	gui-	.
.	.	.	8g/	cię	-da i	.
.	.	.	8a/	tu	tuoi	.
=9	=9	=9	=9	=9	=9	=9
4r	4r	pp	1b	wie-	pas-	.
4BB/	4B/	.	.	.	.	.
4GG#X/ 4C#X	4B/ 4e	.	.	.	.	.
4FF#/ 4D#X	4A/ 4B 4f#	.	.	.	.	.
!!linebreak:original
=10	=10	=10	=10	=10	=10	=10
*	*^	*	*	*	*	*
1EE 1E	8raa	2G#X\ 2B 2e 2g#X	.	4e/	-dzie?	-si?	.
!	!LO:TX:a:t=Fl.	!	!	!	!	!	!
!	!LO:TX:a:i:t=dolce	!	!	!	!	!	!
.	(8ee/L	.	.	.	.	.	.
.	8gg#X/	.	.	4r	.	.	.
.	8aa/J	.	.	.	.	.	.
!	!LO:TX:b:i:t=m.s.	!	!	!	!	!	!
.	4.bb/)	4d#X\ 4f#	.	4r	.	.	.
!	!	!	!	!LO:TX:a:t=Idamor. Idamor.	!	!	!
.	.	4dn\ 4g#	.	4b\	Mi-	Il	.
.	8bb/	.	.	.	.	.	.
=11	=11	=11	=11	=11	=11	=11	=11
*^	*	*	*	*	*	*	*
*	*^	*	*	*	*	*	*	*
(2.e/	4c#X\	2.E\	(8bb^/L	4rc	.	4.ee\	-ło-	dio	.
.	.	.	8aa/	.	.	.	.	.	.
.	4cn\	.	8ee/	(4a\	.	.	.	.	.
.	.	.	8ff#/J	.	.	8cc\	-ści	d’a-	.
.	2B\)	.	2ggn/)	4gn\	.	4b\	Bóg!	-mor.	.
4D/ 4G	.	4ryy	.	4fn\)	.	4r	.	.	.
*v	*v	*v	*	*	*	*	*	*	*
*	*v	*v	*	*	*	*	*
=12	=12	=12	=12	=12	=12	=12
!	!LO:TX:a:B:t=Recit.	!	!LO:TX:a:B:t=Recit.	!	!	!
[1C [1G	32e/LLL	pp	2r	.	.	.
.	32c/	.	.	.	.	.
.	32e/	.	.	.	.	.
.	32c/	.	.	.	.	.
.	32e/	.	.	.	.	.
.	32c/	.	.	.	.	.
.	32e/	.	.	.	.	.
.	32c/JJJ	.	.	.	.	.
.	32e/LLL	.	.	.	.	.
.	32c/	.	.	.	.	.
.	32e/	.	.	.	.	.
.	32c/	.	.	.	.	.
.	32e/	.	.	.	.	.
.	32c/	.	.	.	.	.
.	32e/	.	.	.	.	.
.	32c/JJJ	.	.	.	.	.
.	32e/LLL	.	8r	.	.	.
.	32c/	.	.	.	.	.
.	32e/	.	.	.	.	.
.	32c/	.	.	.	.	.
.	32e/	.	8ee\	Nie	L’au-	.
.	32c/	.	.	.	.	.
.	32e/	.	.	.	.	.
.	32c/JJJ	.	.	.	.	.
.	32e/LLL	.	8dd\	dłu-	-ro-	.
.	32c/	.	.	.	.	.
.	32e/	.	.	.	.	.
.	32c/	.	.	.	.	.
.	32e/	.	8ee\	-go	-ra in	.
.	32c/	.	.	.	.	.
.	32e/	.	.	.	.	.
.	32c/JJJ	.	.	.	.	.
!!pagebreak:original
=13	=13	=13	=13	=13	=13	=13
1C] 1G]	32e/LLL	.	4.cc\	wej-	cie-	.
.	32c/	.	.	.	.	.
.	32e/	.	.	.	.	.
.	32c/	.	.	.	.	.
.	32e/	.	.	.	.	.
.	32c/	.	.	.	.	.
.	32e/	.	.	.	.	.
.	32c/JJJ	.	.	.	.	.
.	32e/LLL	.	.	.	.	.
.	32c/	.	.	.	.	.
.	32e/	.	.	.	.	.
.	32c/	.	.	.	.	.
.	32e/	.	8g/	-dzie	-lo	.
.	32c/	.	.	.	.	.
.	32e/	.	.	.	.	.
.	32c/JJJ	.	.	.	.	.
.	32e/LLL	.	4g/	jutrz-	sta	.
.	32c/	.	.	.	.	.
.	32e/	.	.	.	.	.
.	32c/	.	.	.	.	.
.	32e/	.	.	.	.	.
.	32c/	.	.	.	.	.
.	32e/	.	.	.	.	.
.	32c/JJJ	.	.	.	.	.
.	32e/LLL	.	8fn/	-nia	per	.
.	32c/	.	.	.	.	.
.	32e/	.	.	.	.	.
.	32c/	.	.	.	.	.
.	32e/	.	8g/	ró-	spun-	.
.	32c/	.	.	.	.	.
.	32e/	.	.	.	.	.
.	32c/JJJ	.	.	.	.	.
!!linebreak:original
=14	=14	=14	=14	=14	=14	=14
[1C	32e/LLL	<	4fn/	-ża-	-ta-	.
.	32c/	.	.	.	.	.
.	32e/	.	.	.	.	.
.	32c/	.	.	.	.	.
.	32e/	.	.	.	.	.
.	32c/	.	.	.	.	.
.	32e/	.	.	.	.	.
.	32c/JJJ	.	.	.	.	.
.	32e/LLL	.	4e/	-na,	-re,	.
.	32c/	.	.	.	.	.
.	32e/	.	.	.	.	.
.	32c/	.	.	.	.	.
.	32e/	.	.	.	.	.
.	32c/	.	.	.	.	.
.	32e/	.	.	.	.	.
.	32c/JJJ	.	.	.	.	.
.	32e/LLL 32g	.	8r	.	.	.
.	32c/	.	.	.	.	.
.	32e/ 32g	.	.	.	.	.
.	32c/	.	.	.	.	.
.	32e/ 32g	.	8g/	Je-	E a	.
.	32c/	.	.	.	.	.
.	32e/ 32g	.	.	.	.	.
.	32c/JJJ	.	.	.	.	.
.	32e/LLL 32g	.	8cc\	-szcze	me	.
.	32c/	.	.	.	.	.
.	32e/ 32g	.	.	.	.	.
.	32c/	.	.	.	.	.
.	32e/ 32g	.	8ee\	Ne-	Ne-	.
.	32c/	.	.	.	.	.
.	32e/ 32g	.	.	.	.	.
.	32c/JJJ	[	.	.	.	.
=15	=15	=15	=15	=15	=15	=15
1C]	32g/LLL 32cc	>	2gg\	-a-	-a-	.
.	32e/	.	.	.	.	.
.	32g/ 32cc	.	.	.	.	.
.	32e/	.	.	.	.	.
.	32g/ 32cc	.	.	.	.	.
.	32e/	.	.	.	.	.
.	32g/ 32cc	.	.	.	.	.
.	32e/JJJ	.	.	.	.	.
.	32g/LLL 32cc	.	.	.	.	.
.	32e/	.	.	.	.	.
.	32g/ 32cc	.	.	.	.	.
.	32e/	.	.	.	.	.
.	32g/ 32cc	.	.	.	.	.
.	32e/	.	.	.	.	.
.	32g/ 32cc	.	.	.	.	.
.	32e/JJJ	.	.	.	.	.
.	32e/LLL 32g	.	8ee\	-li	-la	.
.	32c/	.	.	.	.	.
.	32e/ 32g	.	.	.	.	.
.	32c/	.	.	.	.	.
.	32e/ 32g	.	8ee\	nie	com-	.
.	32c/	.	.	.	.	.
.	32e/ 32g	.	.	.	.	.
.	32c/JJJ	.	.	.	.	.
.	32e/LLL 32g	.	8dd\	wi-	-pa-	.
.	32c/	.	.	.	.	.
.	32e/ 32g	.	.	.	.	.
.	32c/	.	.	.	.	.
.	32e/ 32g	.	8cc\	-dzę	-ri-	.
.	32c/	.	.	.	.	.
.	32e/ 32g	.	.	.	.	.
.	32c/JJJ	]	.	.	.	.
!!linebreak:original
=16	=16	=16	=16	=16	=16	=16
!	!	!	!LO:TX:a:i:t=Ratef. (atterrito)	!	!	!
!	!	!	!LO:TX:a:t=Ratef. (przerażony)	!	!	!
!	!LO:TX:a:B:t=Allegro.	!	!LO:TX:a:B:t=Allegro.	!	!	!
4C/	4c/ 4e	.	2ee\	nie.	-ra.	.
4BB^/	4d^/ 4e 4g#X	.	.	.	.	.
!	!	!	!LO:TX:a:i:t=poco animato	!	!	!
4AA^/	4c^/ 4e 4a	.	8cc\	Co?	Che?	.
.	.	.	8r	.	.	.
4r	4r	.	8b\	i-	Non	.
.	.	.	8cc\	-mię	pa-	.
=17	=17	=17	=17	=17	=17	=17
1r	1r	.	4.a/	cór-	-ven-	.
.	.	.	8e/	-ki	-ti	.
.	.	.	4e/	ar-	di	.
.	.	.	8d/	-cy-	pro-	.
.	.	.	8e/	-ka-	-fa-	.
=18	=18	=18	=18	=18	=18	=18
1r	1r	.	4d/	-pła-	-na-	.
.	.	.	4c/	-na	-re	.
.	.	.	8e/	Twój	Di	.
.	.	.	4a/	głos,	qu-	.
.	.	.	8cc\	twe	-esti	.
=19	=19	=19	=19	=19	=19	=19
1r	1r	.	2ee\	ser-	luo-	.
.	.	.	8cc\	-ce	-ghi	.
.	.	.	8cc\	przy-	la	.
.	.	.	8b\	-zy-	san-	.
.	.	.	8a/	-wać	-ti-	.
=20	=20	=20	=20	=20	=20	=20
8.FF#/L	8.r	f	4dd\	śmie?!	-tà?!	.
16F#/Jk	16d/ 16a 16cc 16dd	.	.	.	.	.
8F#\	8d^/ 8a 8cc 8dd	.	4r	.	.	.
8r	8r	.	.	.	.	.
!	!	!	!LO:TX:a:t=Idam. Idam.	!	!	!
2r	2r	.	4dd\	Jam	La	.
.	.	.	8ee\	tę	va-	.
.	.	.	8dd\	dzie-	-ga	.
!!linebreak:original
=21	=21	=21	=21	=21	=21	=21
1r	1r	.	4dd\	-wi-	ver-	.
.	.	.	8.a/	-cę	-gin	.
.	.	.	16a/	po-	m’af-	.
.	.	.	4.cc\	-ko-	-fa-	.
.	.	.	8b\	-chać	-sci-	.
=22	=22	=22	=22	=22	=22	=22
!	!LO:TX:b:i:t=tranquillo	!	!	!	!	!
!	!LO:TX:a:B:t=Lento.	!	!LO:TX:a:B:t=Lento.	!	!	!
(2B\	1d#X 1f# 1b	pp	8b\	śmiał.	-nó.	.
.	.	.	16r	.	.	.
!	!	!	!LO:TX:a:t=Ratef. Ratef.	!	!	!
.	.	.	16b\	Co	Chein-	.
.	.	.	8b\	sły-	-ten-	.
.	.	.	8f#/	-szę?	-do!	.
!	!	!	!LO:TX:a:t=Idam. Idam.	!	!	!
2A\)	.	.	4b\	Wkrót-	Fra	.
.	.	.	8b\	-ce	po-	.
.	.	.	8b\	A-	-co	.
=23||	=23||	=23||	=23||	=23||	=23||	=23||
*k[f#c#g#d#]	*k[f#c#g#d#]	*	*k[f#c#g#d#]	*	*	*
*E:	*E:	*	*E:	*	*	*
*	*^	*	*	*	*	*
!	!LO:TX:b:t=Fag.	!	!	!	!	!	!
!	!LO:TX:a:t=Cl.	!	!	!LO:TX:a:i:t=a tempo	!	!	!
(2G#\ 2B	(2b/	1e	.	4.b\	-ru-	l’al-	.
*	*	*	*	*)	*	*	*
.	.	.	.	8b\	-ny	-ba	.
2Gn\ 2A#X	4cc#/	.	.	4cc#\	po-	per	.
.	8dd#/L	.	.	8dd#\	-god-	sa-	.
.	8cc#/J)	.	.	8cc#\	-ne	-lu-	.
!!linebreak:original
=24	=24	=24	=24	=24	=24	=24	=24
*^	*	*	*	*	*	*	*
2F#\ 2A	2ryy	4cc#/	(2d#\	.	4cc#\	Goń-	-ta-	.
.	.	(4b/	.	.	8b\	-ce	-re	.
.	.	.	.	.	8b\	po-	la	.
2G#/	4.E\	2b/)	2e\)	.	4b\	-boż-	tur-	.
.	.	.	.	.	8cc#\	-nych	-ba	.
.	8D#\)	.	.	.	8dd#\	spro-	fe-	.
*v	*v	*	*	*	*	*	*	*
=25	=25	=25	=25	=25	=25	=25	=25
((2C#\ 2A	(2e/ 2a	2.ryy	.	4.ee\	-wa-	-del	.
.	.	.	.	8e/	-dzą	qui ac-	.
2BB\)) 2B	4e/ 4g#	.	.	4.g#/	w miej-	-cor-	.
.	8b/L	4d#\	.	.	.	.	.
.	8a/J)	.	.	8f#/	-sce	-re-	.
=26	=26	=26	=26	=26	=26	=26	=26
!	!LO:TX:b:t=Q.	!	!	!	!	!	!
32EE/LLL	2g#/	(8e\L	.	4e/	to,	-rà.	.
32BB/	.	.	.	.	.	.	.
32EE/	.	.	.	.	.	.	.
32BB/	.	.	.	.	.	.	.
32EE/	.	8G#\	.	.	.	.	.
32BB/	.	.	.	.	.	.	.
32EE/	.	.	.	.	.	.	.
32BB/JJJ	.	.	.	.	.	.	.
32EE/LLL	.	8B\	.	4r	.	.	.
32BB/	.	.	.	.	.	.	.
32EE/	.	.	.	.	.	.	.
32BB/	.	.	.	.	.	.	.
32EE/	.	8e\J)	.	.	.	.	.
32BB/	.	.	.	.	.	.	.
32EE/	.	.	.	.	.	.	.
32BB/JJJ	.	.	.	.	.	.	.
32EE/LLL	8g#/	8g#\	.	8r	.	.	.
32BB/	.	.	.	.	.	.	.
32EE/	.	.	.	.	.	.	.
32BB/	.	.	.	.	.	.	.
32EE/	(8e/L 8g#	4.ryy	.	8g#/	Nim	Pria	.
32BB/	.	.	.	.	.	.	.
32EE/	.	.	.	.	.	.	.
32BB/JJJ	.	.	.	.	.	.	.
32EE/LLL	8f#/) 8a	.	.	8a/	przyj-	che	.
32BB/	.	.	.	.	.	.	.
32EE/	.	.	.	.	.	.	.
32BB/	.	.	.	.	.	.	.
32EE/	8a/J 8cc#	.	.	8cc#\	-mie	del	.
32BB/	.	.	.	.	.	.	.
32EE/	.	.	.	.	.	.	.
32BB/JJJ	.	.	.	.	.	.	.
*	*v	*v	*	*	*	*	*
!!pagebreak:original
=27	=27	=27	=27	=27	=27	=27
!	!	!	!	!	!	!LO:DY:a
32EE/LLL	(((2d#/ 2f# 2a 2cc#	.	(2cc#\	cześć	so-	<
32BB/	.	.	.	.	.	.
32EE/	.	.	.	.	.	.
32BB/	.	.	.	.	.	.
32EE/	.	.	.	.	.	.
32BB/	.	.	.	.	.	.
32EE/	.	.	.	.	.	.
32BB/JJJ	.	.	.	.	.	.
32EE/LLL	.	.	.	.	.	.
32BB/	.	.	.	.	.	.
32EE/	.	.	.	.	.	.
32BB/	.	.	.	.	.	.
32EE/	.	.	.	.	.	.
32BB/	.	.	.	.	.	.
32EE/	.	.	.	.	.	.
32BB/JJJ	.	.	.	.	.	.
32EE/LLL	8e/))) 8g# 8b	.	8b\)	.	.	.
32BB/	.	.	.	.	.	.
32EE/	.	.	.	.	.	.
32BB/	.	.	.	.	.	.
32EE/	(8g#\L 8b	.	8b\	wscho-	-le si	.
32BB/	.	.	.	.	.	.
32EE/	.	.	.	.	.	.
32BB/JJJ	.	.	.	.	.	.
32EE/LLL	8.a\) 8.cc#	.	8.cc#\	-dzą-	com-	.
32BB/	.	.	.	.	.	.
32EE/	.	.	.	.	.	.
32BB/	.	.	.	.	.	.
32EE/	.	.	.	.	.	.
32BB/	.	.	.	.	.	.
32EE/	16a\Jk 16cc# 16ff#	.	16ff#\	-ce	-pia il	.
32BB/JJJ	.	.	.	.	.	.
!!linebreak:original
=28	=28	=28	=28	=28	=28	=28
32EE/LLL	((2d#/ 2a 2b 2ff#	.	2ff#\	słoń-	ri-	.
32BB/	.	.	.	.	.	.
32EE/	.	.	.	.	.	.
32BB/	.	.	.	.	.	.
32EE/	.	.	.	.	.	.
32BB/	.	.	.	.	.	.
32EE/	.	.	.	.	.	.
32BB/JJJ	.	.	.	.	.	.
32EE/LLL	.	.	.	.	.	.
32BB/	.	.	.	.	.	.
32EE/	.	.	.	.	.	.
32BB/	.	.	.	.	.	.
32EE/	.	.	.	.	.	.
32BB/	.	.	.	.	.	.
32EE/	.	.	.	.	.	.
32BB/JJJ	.	.	.	.	.	.
32EE/LLL	8e/)) 8g# 8b 8ee	.	8ee\	-ce	-to,	.
32BB/	.	.	.	.	.	.
32EE/	.	.	.	.	.	.
32BB/	.	.	.	.	.	.
32EE/	(8e/L 8g#	.	8ee\	Na	per	.
32BB/	.	.	.	.	.	.
32EE/	.	.	.	.	.	.
32BB/JJJ	.	.	.	.	.	.
32EE/LLL	8B/) 8b	.	8dd#\	chwi-	breve	.
32BB/	.	.	.	.	.	.
32EE/	.	.	.	.	.	.
32BB/	.	.	.	.	.	.
32EE/	8G#/J 8e	.	8ee\	-lę	i-	[
32BB/	.	.	.	.	.	.
32EE/	.	.	.	.	.	.
32BB/JJJ	.	.	.	.	.	.
=29	=29	=29	=29	=29	=29	=29
[4EE;/ [4E	[4G#;/ [4B [4e [4g#	.	4.gg#;\	pier-	-stan-	.
8EE/] 8E]	8G#/] 8B] 8e] 8g#]	.	.	.	.	.
8r	8r	.	8ee\	-wej	-te	.
2r	2r	.	4.b\	uj-	la	.
.	.	.	8g#/	-rzę	ve-	.
=30	=30	=30	=30	=30	=30	=30
2r	2r	.	2b\	ją!	-drò.	.
8r	8r	.	2r	.	.	.
8BB\L 8D#	8A/L 8B	p	.	.	.	.
8BB\ 8E	8A/ 8c#	<	.	.	.	.
8BB\J 8E	8A/J 8c# 8f#	.	.	.	.	.
=31	=31	=31	=31	=31	=31	=31
([2BB\ 2D#	(2A/ [2B 2f#	[	1r	.	.	.
8BB\L]) 8E	8G#/L) 8B] 8e	.	.	.	.	.
8BB\ 8E	8G#/ 8B	pp	.	.	.	.
8BB\ 8E	8A/ 8c#	.	.	.	.	.
8BB\J 8E	8A/J 8c# 8f#	.	.	.	.	.
!!linebreak:original
=32	=32	=32	=32	=32	=32	=32
1EE 1BB 1E	2G#/ 2B [2f#	.	1r	.	.	.
.	8f#/L]	.	.	.	.	.
.	(8e/	.	.	.	.	.
.	8G#/	.	.	.	.	.
.	8B/J)	.	.	.	.	.
=33||	=33||	=33||	=33||	=33||	=33||	=33||
*k[]	*k[]	*	*k[]	*	*	*
*C:	*C:	*	*C:	*	*	*
!	!LO:TX:a:i:t=(nel fondo della scena sorge un rumore)	!	!	!	!	!
!	!LO:TX:a:t=(Słychać wrzawę)	!	!	!	!	!
!	!LO:TX:a:B:t=Allegro feroce.	!	!LO:TX:a:B:t=Allegro feroce.	!	!	!
2EE/ 2E	2G#X/ [2e	p	1r	.	.	.
!	!LO:TX:b:t=Q.	!	!	!	!	!
8.r	8e/L]	.	.	.	.	.
.	16r	.	.	.	.	.
16E\KL	16e/k	.	.	.	.	.
8.F\	8.f/	.	.	.	.	.
16E\Jk	16e/Jk	.	.	.	.	.
=34	=34	=34	=34	=34	=34	=34
[2F\	[2f/	<	1r	.	.	.
8.F\L]	8.f/L]	.	.	.	.	.
16E\k	16e/k	.	.	.	.	.
8.F\	8.f/	.	.	.	.	.
16E\Jk	16e/Jk	.	.	.	.	.
=35	=35	=35	=35	=35	=35	=35
[2F\	[2f/	.	1r	.	.	.
8.F\L]	8.f/L]	.	.	.	.	.
16E\k	16e/k	.	.	.	.	.
8.F\	8.f/	.	.	.	.	.
16E\Jk	16e/Jk	.	.	.	.	.
=36	=36	=36	=36	=36	=36	=36
4.F\	4.f/	[ f	1r	.	.	.
8E\	8e/	.	.	.	.	.
8.D\L	8.d/L	.	.	.	.	.
16E\k	16e/k	.	.	.	.	.
8F\J	8.f/	.	.	.	.	.
8r	.	.	.	.	.	.
.	16A/Jk 16a	.	.	.	.	.
=37	=37	=37	=37	=37	=37	=37
!	!	!	!LO:TX:a:i:t=Ratef. (osservando verso il fondo)	!	!	!
!	!	!	!LO:TX:a:t=Ratef. (patrząc na scenę)	!	!	!
!	!LO:TX:a:B:t=Recit.	!	!LO:TX:a:B:t=Recit.	!	!	!
[1DD [1AA [1D	[1A [1d [1a	fp	2r	.	.	.
.	.	.	8r	.	.	.
.	.	.	8a/	Cóż	Qua-	.
.	.	.	8a/	to	-le	.
.	.	.	8a/	za	fra-	.
!!linebreak:original
=38	=38	=38	=38	=38	=38	=38
1DD_ 1AA] 1D_	1A_ 1d_ 1a_	.	4dd\	gwar?	-gor?	.
.	.	.	8r	.	.	.
.	.	.	16a/	ja-	Chi	.
.	.	.	16a/	-cyż	son	.
.	.	.	4a/	to	mai	.
.	.	.	8g/	znów	quel-	.
.	.	.	8a/	zu-	-li au-	.
=39	=39	=39	=39	=39	=39	=39
2DD/] 2D]	2A/] 2d] 2a]	.	4g/	-chwa-	-da-	.
.	.	.	4f/	-li	-ci,	.
2r	2r	.	4r	.	.	.
.	.	.	4f/	Zło-	l’a-	.
=40	=40	=40	=40	=40	=40	=40
1r	1r	.	8.f/	-rze-	-sil	.
.	.	.	16f/	-cząc	di	.
.	.	.	8f/	bie-	Bra-	.
.	.	.	8f/	-gną	-ma	.
.	.	.	4g/	w stro-	che	.
.	.	.	4a/	-ny	tur-	.
=41	=41	=41	=41	=41	=41	=41
2r	2r	.	2f/	te?	-bar?	.
8.r	8.r	.	2r	.	.	.
16E\KL	16e/KL	mf	.	.	.	.
8.F\	8.f/	.	.	.	.	.
16E\Jk	16e/Jk	.	.	.	.	.
=42	=42	=42	=42	=42	=42	=42
2F\	2f/	.	1r	.	.	.
8.D\L 8.F 8.A	8.d/L 8.f 8.a	sf	.	.	.	.
16E\k	16e/k	.	.	.	.	.
8.F\	8.f/	.	.	.	.	.
16E\Jk	16e/Jk	.	.	.	.	.
!!linebreak:original
=43	=43	=43	=43	=43	=43	=43
2F\	2f/	.	1r	.	.	.
8.D\L 8.F 8.A	8.d/L 8.f 8.a	sf	.	.	.	.
16E\k	16e/k	.	.	.	.	.
8.F\	8.f/	.	.	.	.	.
16E\Jk	16e/Jk	.	.	.	.	.
=44	=44	=44	=44	=44	=44	=44
4..D^\	4..d^/	.	1r	.	.	.
16E\	16e/	<	.	.	.	.
8.F/L	8.f/L	.	.	.	.	.
16D/k	16d/k	.	.	.	.	.
8.F/	8.f/	.	.	.	.	.
16AA/Jk	16A/Jk	.	.	.	.	.
=45	=45	=45	=45	=45	=45	=45
!	!LO:TX:b:t=Fag.	!	!LO:TX:a:i:t=Idamor. (ponendo mano all'arme)	!	!	!
!	!LO:TX:a:t=Fl.	!	!LO:TX:a:t=Idamor. (chwytając za broń)	!	!	!
!	!LO:TX:a:B:t=Recit.	!	!LO:TX:a:B:t=Recit.	!	!	!
[1DD [1D	[1B [1f [1g#X	[ fp	2r	.	.	.
.	.	.	4g#X/	Mo-	For-	.
.	.	.	8b\	-że	-se	.
.	.	.	8dd\	nie-	Ne-	.
=46	=46	=46	=46	=46	=46	=46
1DD_ 1D_	1B_ 1f_ 1g#_	.	4.ff\	-szczę-	-a-	.
.	.	.	8dd\	-ście	-la	.
.	.	.	4dd\	gro-	pe-	.
.	.	.	8b\	-zi	-riglio	.
.	.	.	8a/	Ne-	in-	.
=47	=47	=47	=47	=47	=47	=47
4DD/] 4D]	4B/] 4f] 4g#]	.	4g#X/	-a-	-cor-	.
4r	4r	.	4b\	-li?!	-re?	.
2GG#X/ 2E	[2d/ [2e [2b	fp	4r	.	.	.
.	.	.	12b\	mo-	For-	.
.	.	.	12b\	-że	-se	.
.	.	.	12b\	kto	l’han	.
!!linebreak:original
=48	=48	=48	=48	=48	=48	=48
4FF/ 4C	4d/] 4e] 4b]	.	4ee\	do-	vi-	.
!	!LO:TX:b:i:t=(Ratef lo trattiene)	!	!	!	!	!
!	!LO:TX:a:t=(Ratef wstrzymuje Idamora)	!	!	!	!	!
4r	4r	.	8b\	-strzegl?!	-sta?	.
.	.	.	16r	.	.	.
.	.	.	16b\	Ach	La	.
2r	2r	.	8.b\	spie-	di-	.
.	.	.	16e/	-szmy	-fen-	.
.	.	.	4e/	się…	-diam.	.
=||	=||	=||	=||	=||	=||	=||
*-	*-	*-	*-	*-	*-	*-
!!!system-decoration: s1{(s2,s3)}
!!!ENC: Arek Malec 
!!!END: 20220930
!!!YEC: Copyright 2022 Narodowy Instytut Fryderyka Chopina (https://polishscores.org)
!!!YEM: License CC-BY-4.0 (https://creativecommons.org/licenses/by/4.0)
